public/images/icon_cycle.svg

<svg fill="none" height="15" viewBox="0 0 16 15" width="16" xmlns="http://www.w3.org/2000/svg"><path d="m8 14.5c-3.86599 0-7-3.134-7-7 0-2.23096 1.04367-4.21817 2.6694-5.5m4.3306-1.5c3.866 0 7 3.13401 7 7 0 2.23096-1.0437 4.2182-2.6694 5.5m-.3306-3v3.5h3.5m-15-12h3.5v3.5" stroke="#ddd"/></svg>

<svg width="16" height="15" viewBox="0 0 16 15" fill="none" xmlns="http://www.w3.org/2000/svg">
<path d="M8 14.5C4.13401 14.5 1 11.366 1 7.5C1 5.26904 2.04367 3.28183 3.6694 2M8 0.5C11.866 0.5 15 3.63401 15 7.5C15 9.73096 13.9563 11.7182 12.3306 13M12 10V13.5H15.5M0.5 1.5H4V5" stroke="#DDDDDD"/>
</svg>
